svg/LeftHanded/nw-resize.svg

<?xml version="1.0" encoding="UTF-8" standalone="no"?>
<!-- Created with Inkscape (http://www.inkscape.org/) -->
<svg
   xmlns:svg="http://www.w3.org/2000/svg"
   xmlns="http://www.w3.org/2000/svg"
   xmlns:xlink="http://www.w3.org/1999/xlink"
   version="1.0"
   width="500"
   height="500"
   viewBox="0 0 1000 1000"
   id="page"
   xml:space="preserve"><defs
     id="defs38"><linearGradient
       id="linearGradient2218"><stop
         id="stop2220"
         style="stop-color:#999999;stop-opacity:1"
         offset="0" /><stop
         id="stop2222"
         style="stop-color:#555555;stop-opacity:1"
         offset="1" /></linearGradient><linearGradient
       x1="303.29138"
       y1="115.33563"
       x2="303.29138"
       y2="508.32028"
       id="linearGradient4206"
       xlink:href="#linearGradient2218"
       gradientUnits="userSpaceOnUse"
       gradientTransform="translate(-3.6755955e-6,1.246115e-5)" /></defs><path
     d="M 555.35972,456.19079 C 535.16172,455.80579 417.41772,302.49179 400.16172,302.80479 C 381.41772,302.49179 400.45172,483.52279 391.16172,491.80579 C 381.41772,500.49179 327.41772,500.49179 319.16172,491.80579 C 309.41772,482.49179 313.21072,142.05579 320.35872,134.19079 C 330.36072,123.18879 669.41772,122.49179 679.16172,131.80379 C 690.88272,143.00879 687.41772,194.49079 679.16172,203.80379 C 669.41772,212.49079 489.41772,194.49079 490.16172,212.80379 C 489.41872,230.49079 643.16172,347.80379 645.36172,366.18779 C 642.41772,401.49179 588.41772,455.49079 555.35972,456.19079 z"
     id="path4191"
     style="opacity:1;fill:url(#linearGradient4206);fill-opacity:1;stroke:#000000;stroke-width:20;stroke-linecap:round;stroke-linejoin:round;stroke-miterlimit:1" /></svg>

<?xml version="1.0" encoding="UTF-8" standalone="no"?>
<!-- Created with Inkscape (http://www.inkscape.org/) -->

<svg
   xmlns:dc="http://purl.org/dc/elements/1.1/"
   xmlns:cc="http://creativecommons.org/ns#"
   xmlns:rdf="http://www.w3.org/1999/02/22-rdf-syntax-ns#"
   xmlns:svg="http://www.w3.org/2000/svg"
   xmlns="http://www.w3.org/2000/svg"
   xmlns:xlink="http://www.w3.org/1999/xlink"
   version="1.0"
   width="500"
   height="500"
   viewBox="0 0 1000 1000"
   id="page"
   xml:space="preserve"><metadata
     id="metadata11"><rdf:RDF><cc:Work
         rdf:about=""><dc:format>image/svg+xml</dc:format><dc:type
           rdf:resource="http://purl.org/dc/dcmitype/StillImage" /><dc:title></dc:title></cc:Work></rdf:RDF></metadata><defs
     id="defs38"><linearGradient
       id="linearGradient2218"><stop
         id="stop2220"
         style="stop-color:#999999;stop-opacity:1"
         offset="0" /><stop
         id="stop2222"
         style="stop-color:#555555;stop-opacity:1"
         offset="1" /></linearGradient><linearGradient
       x1="303.29138"
       y1="115.33563"
       x2="303.29138"
       y2="508.32028"
       id="linearGradient4206"
       xlink:href="#linearGradient2218"
       gradientUnits="userSpaceOnUse"
       gradientTransform="translate(-4.4107151e-6,1.246115e-5)" /><filter
       x="-0.239861"
       y="-0.24013917"
       width="1.479722"
       height="1.4802783"
       color-interpolation-filters="sRGB"
       id="filter3800"><feGaussianBlur
         id="feGaussianBlur3802"
         stdDeviation="37.320095" /></filter></defs><path
     d="m 1169.7665,669.78656 c -20.198,-0.385 -137.942,-153.699 -155.198,-153.386 -18.74399,-0.313 0.29,180.718 -9,189.001 -9.74399,8.686 -63.74399,8.686 -71.99999,0 -9.744,-9.314 -5.951,-349.75 1.197,-357.615 10.002,-11.002 349.05899,-11.699 358.80299,-2.387 11.721,11.205 8.256,62.687 0,72 -9.744,8.687 -189.744,-9.313 -189,9 -0.743,17.687 153,135 155.2,153.384 -2.944,35.304 -56.944,89.303 -90.002,90.003 z"
     transform="matrix(1.2,0,0,1.2,-837.28814,-198.68052)"
     id="path4191-5"
     style="opacity:0.15;fill:#000000;fill-opacity:1;stroke:none;filter:url(#filter3800)" /><path
     d="m 555.35972,456.19079 c -20.198,-0.385 -137.942,-153.699 -155.198,-153.386 -18.744,-0.313 0.29,180.718 -9,189.001 -9.744,8.686 -63.744,8.686 -72,0 -9.744,-9.314 -5.951,-349.75 1.197,-357.615 10.002,-11.002 349.059,-11.699 358.803,-2.387 11.721,11.205 8.256,62.687 0,72 -9.744,8.687 -189.744,-9.313 -189,9 -0.743,17.687 153,135 155.2,153.384 -2.944,35.304 -56.944,89.303 -90.002,90.003 z"
     id="path4191"
     style="opacity:0.75;fill:url(#linearGradient4206);fill-opacity:1;stroke:#000000;stroke-width:20;stroke-linecap:round;stroke-linejoin:round;stroke-miterlimit:1" /></svg>
